public/media/icons-technologies/NODEJS.svg

<svg width="140" height="140" viewBox="0 0 140 140" fill="none" xmlns="http://www.w3.org/2000/svg">
<g clip-path="url(#clip0_205_1391)">
<path d="M65.5762 11.5234C68.5387 9.82766 72.3974 9.82 75.3574 11.5234C90.2489 19.9379 105.145 28.3391 120.034 36.7587C122.834 38.3362 124.708 41.4528 124.679 44.6796V95.3043C124.7 98.6647 122.642 101.856 119.687 103.397C104.845 111.766 90.0098 120.144 75.1698 128.512C72.146 130.241 68.2098 130.108 65.2804 128.237C60.8306 125.657 56.3732 123.091 51.923 120.514C51.0136 119.971 49.9885 119.54 49.3464 118.658C49.914 117.893 50.9289 117.798 51.7536 117.464C53.6111 116.873 55.317 115.925 57.0234 115.005C57.4549 114.71 57.9817 114.823 58.3953 115.087C62.2004 117.269 65.9719 119.514 69.7898 121.675C70.6043 122.145 71.4289 121.521 72.1251 121.133C86.6902 112.901 101.273 104.7 115.836 96.4655C116.375 96.206 116.674 95.6332 116.63 95.0421C116.64 78.3421 116.632 61.6391 116.635 44.9391C116.697 44.2685 116.309 43.6519 115.702 43.3774C100.911 35.0477 86.1277 26.7051 71.3391 18.3732C71.0829 18.197 70.7794 18.1025 70.4685 18.1021C70.1576 18.1016 69.8538 18.1952 69.597 18.3706C54.8085 26.7051 40.0277 35.0553 25.2391 43.3847C24.6349 43.6596 24.2294 44.266 24.3013 44.9391C24.3038 61.6391 24.3013 78.3421 24.3013 95.0447C24.2756 95.3331 24.339 95.6224 24.4828 95.8737C24.6266 96.125 24.8439 96.3262 25.1055 96.4502C29.0519 98.6881 33.0034 100.91 36.9523 103.14C39.177 104.338 41.9085 105.049 44.3596 104.132C46.5225 103.356 48.0387 101.149 47.9974 98.8523C48.0179 82.2498 47.9872 65.6447 48.0128 49.0447C47.9587 48.3077 48.6579 47.6987 49.3745 47.7681C51.2706 47.7553 53.1694 47.7425 55.0655 47.7732C55.857 47.7553 56.4017 48.5489 56.3038 49.2915C56.2962 65.9991 56.3243 82.7072 56.2911 99.4149C56.2962 103.868 54.4668 108.713 50.3481 110.891C45.274 113.52 39.0026 112.963 33.9898 110.442C29.6502 108.276 25.5089 105.72 21.2464 103.4C18.2843 101.866 16.2362 98.6626 16.257 95.3047V44.6796C16.226 41.386 18.1736 38.2128 21.0613 36.6583C35.9013 28.2834 50.7387 19.9021 65.5762 11.5234Z" fill="#8CC84B"/>
<path d="M78.5226 46.5915C84.9949 46.1749 91.9238 46.3447 97.7481 49.5332C102.257 51.9766 104.757 57.1047 104.837 62.1145C104.711 62.7903 104.005 63.163 103.36 63.1166C101.482 63.1141 99.6034 63.1422 97.7255 63.1039C96.9289 63.1345 96.466 62.4 96.366 61.6958C95.8264 59.2988 94.5192 56.9247 92.263 55.7685C88.7996 54.0345 84.7838 54.1217 81.0072 54.1579C78.2502 54.3043 75.2855 54.543 72.9498 56.1643C71.1566 57.3924 70.6119 59.8715 71.2519 61.8681C71.8553 63.3017 73.5102 63.7643 74.8643 64.1907C82.6643 66.2307 90.9298 66.0277 98.5809 68.7124C101.749 69.8068 104.847 71.9345 105.931 75.2511C107.35 79.6962 106.728 85.0094 103.566 88.5779C101.001 91.5145 97.2655 93.1128 93.54 93.9809C88.5838 95.086 83.4404 95.1141 78.4072 94.6234C73.6745 94.0839 68.7494 92.8405 65.0958 89.6158C61.9715 86.903 60.4455 82.6762 60.597 78.5966C60.6332 77.9077 61.3192 77.4273 61.9792 77.4839C63.8702 77.4686 65.7613 77.4634 67.6523 77.4864C68.4077 77.4324 68.9677 78.0851 69.0064 78.7971C69.3553 81.0809 70.2136 83.4779 72.2051 84.832C76.0485 87.3115 80.8711 87.1417 85.2719 87.2111C88.9179 87.0494 93.0106 87.0005 95.986 84.5907C97.5558 83.2162 98.0209 80.9166 97.5966 78.9383C97.137 77.2681 95.3898 76.4898 93.8894 75.9809C86.1894 73.5451 77.8315 74.429 70.206 71.6745C67.1102 70.5805 64.1166 68.512 62.9272 65.3315C61.2677 60.8303 62.0281 55.2626 65.5221 51.8145C68.9289 48.3847 73.8468 47.0643 78.5226 46.5915Z" fill="#8CC84B"/>
</g>
<defs>
<clipPath id="clip0_205_1391">
<rect width="108.96" height="120" fill="white" transform="translate(16 10)"/>
</clipPath>
</defs>
</svg>

<svg xmlns="http://www.w3.org/2000/svg" fill="none" viewBox="0 0 140 140">
  <g fill="#8CC84B" clip-path="url(#a)">
    <path d="M65.58 11.52c2.96-1.7 6.82-1.7 9.78 0l44.67 25.24a9.2 9.2 0 0 1 4.65 7.92V95.3a9.3 9.3 0 0 1-5 8.1L75.18 128.5a9.73 9.73 0 0 1-9.89-.27l-13.36-7.73c-.9-.54-1.93-.97-2.57-1.85.56-.77 1.58-.86 2.4-1.2 1.86-.59 3.57-1.53 5.27-2.45.43-.3.96-.19 1.38.08 3.8 2.18 7.57 4.42 11.39 6.58.81.47 1.64-.15 2.34-.54 14.56-8.23 29.14-16.43 43.7-24.66.55-.26.84-.84.8-1.43v-50.1a1.56 1.56 0 0 0-.93-1.56l-44.36-25a1.54 1.54 0 0 0-1.74 0c-14.8 8.33-29.57 16.68-44.36 25-.6.28-1.01.89-.94 1.56v50.1a1.42 1.42 0 0 0 .8 1.41l11.85 6.69c2.23 1.2 4.96 1.9 7.41 1A5.62 5.62 0 0 0 48 98.84c.02-16.6-.01-33.2.01-49.8-.05-.74.65-1.35 1.36-1.28 1.9-.01 3.8-.03 5.7 0 .79-.01 1.33.78 1.23 1.52 0 16.7.02 33.42 0 50.12 0 4.46-1.83 9.3-5.95 11.48-5.08 2.63-11.35 2.07-16.36-.45-4.34-2.16-8.48-4.72-12.74-7.04a9.28 9.28 0 0 1-5-8.1V44.68a9.21 9.21 0 0 1 4.81-8.02l44.52-25.14Z"/>
    <path d="M78.52 46.6c6.47-.43 13.4-.26 19.23 2.93 4.5 2.45 7 7.57 7.09 12.58-.13.68-.84 1.05-1.48 1-1.88 0-3.76.03-5.63 0-.8.02-1.26-.71-1.36-1.41-.54-2.4-1.85-4.78-4.1-5.93-3.47-1.74-7.49-1.65-11.26-1.61-2.76.14-5.72.38-8.06 2-1.8 1.23-2.34 3.71-1.7 5.7.6 1.44 2.26 1.9 3.61 2.33 7.8 2.04 16.07 1.84 23.72 4.52 3.17 1.1 6.27 3.22 7.35 6.54 1.42 4.45.8 9.76-2.36 13.33-2.57 2.93-6.3 4.53-10.03 5.4-4.96 1.1-10.1 1.13-15.13.64-4.74-.54-9.66-1.78-13.31-5-3.13-2.72-4.65-6.94-4.5-11.02.03-.7.72-1.17 1.38-1.12 1.89-.01 3.78-.02 5.67 0 .76-.05 1.32.6 1.36 1.32.35 2.28 1.2 4.68 3.2 6.03 3.84 2.48 8.66 2.31 13.06 2.38 3.65-.16 7.74-.2 10.72-2.62 1.57-1.37 2.03-3.67 1.6-5.65-.45-1.67-2.2-2.45-3.7-2.96-7.7-2.43-16.06-1.55-23.68-4.3-3.1-1.1-6.1-3.17-7.28-6.35-1.66-4.5-.9-10.07 2.6-13.52 3.4-3.43 8.32-4.75 13-5.22Z"/>
  </g>
  <defs>
    <clipPath id="a">
      <path fill="#fff" d="M0 0h108.96v120H0z" transform="translate(16 10)"/>
    </clipPath>
  </defs>
</svg>
